docsearch/static/img/docsearch-mark.svg

<svg height="200" viewBox="0 0 200 200" width="200" xmlns="http://www.w3.org/2000/svg"><g fill="none" fill-rule="nonzero" transform="translate(8 6)"><path d="m88.3522807 187.277468h-80.9095614c-4.11050037 0-7.4427193-3.32046-7.4427193-7.416455h88.424307c30.91334.149577 59.558524-16.146082 75.14519-42.748559 15.586666-26.602478 15.746828-59.4702255.420154-86.22228-15.326674-26.7520544-43.811697-43.32414225-74.725037-43.4737183h-89.264614c0-4.09599538 3.33221893-7.4164557 7.4427193-7.4164557h81.8218947c24.960453.02535322 48.887422 9.93510737 66.512353 27.5472026 17.624931 17.6120953 27.502588 41.4823493 27.45798 66.3546961-.144052 51.7716453-42.951693 93.3755693-94.8826663 93.3755693z" fill="#5468ff"/><g fill="#21243d"><path d="m0 167.300886h57.4049737c7.097602.024857 13.9482149-2.594789 19.2070175-7.344683h-76.6119912z"/><path d="m0 147.324304h88.0641754c1.7766492-2.392405 3.4332544-4.78481 4.9698158-7.44038h-93.0339912z"/><path d="m0 127.323797h99.3242895c.9843595-2.392405 1.8726845-4.78481 2.6409645-7.416455h-101.965254z"/><path d="m0 107.347215h104.846307c.360132-2.392405.648237-4.928354.816298-7.4164555h-105.662605z"/><path d="m0 87.3706329h105.638596c-.168061-2.5120253-.456166-5.0001266-.816298-7.4403797h-104.822298z"/><path d="m0 67.3701266h101.965254c-.76828-2.5120253-1.656605-5.0001266-2.6409645-7.4164557h-99.3242895z"/><path d="m0 47.3935443h93.0339912c-1.5281194-2.5552883-3.1869087-5.0306995-4.9698158-7.4164557h-88.0641754z"/><path d="m0 19.9765823v7.4403797h76.6840175c-5.2563214-4.753913-12.1085618-7.3741812-19.2070175-7.3446835z"/></g></g></svg>

<?xml version="1.0" encoding="UTF-8"?>
<svg width="200px" height="200px" viewBox="0 0 200 200" version="1.1" xmlns="http://www.w3.org/2000/svg" xmlns:xlink="http://www.w3.org/1999/xlink">
    <!-- Generator: Sketch 51.2 (57519) - http://www.bohemiancoding.com/sketch -->
    <title>docsearch-mark</title>
    <desc>Created with Sketch.</desc>
    <defs></defs>
    <g id="docsearch-mark" stroke="none" stroke-width="1" fill="none" fill-rule="evenodd">
        <g id="avatar" transform="translate(8.000000, 6.000000)">
            <g id="Shape">
                <path d="M88.3522807,187.277468 L7.4427193,187.277468 C3.33221893,187.277468 1.5106822e-14,183.957008 0,179.861013 L88.424307,179.861013 C119.337647,180.01059 147.982831,163.714931 163.569497,137.112454 C179.156163,110.509976 179.316325,77.6422285 163.989651,50.890174 C148.662977,24.1381196 120.177954,7.56603175 89.264614,7.4164557 L0,7.4164557 C1.14559643e-14,3.32046032 3.33221893,-2.50807381e-16 7.4427193,0 L89.264614,0 C114.225067,0.025353222 138.152036,9.93510737 155.776967,27.5472026 C173.401898,45.1592979 183.279555,69.0295519 183.234947,93.9018987 C183.090895,145.673544 140.283254,187.277468 88.3522807,187.277468 Z" fill="#5468FF" fill-rule="nonzero"></path>
                <path d="M0,167.300886 L57.4049737,167.300886 C64.5025757,167.325743 71.3531886,164.706097 76.6119912,159.956203 L0,159.956203 L0,167.300886 Z" fill="#21243D" fill-rule="nonzero"></path>
                <path d="M0,147.324304 L88.0641754,147.324304 C89.8408246,144.931899 91.4974298,142.539494 93.0339912,139.883924 L0,139.883924 L0,147.324304 Z" fill="#21243D" fill-rule="nonzero"></path>
                <path d="M0,127.323797 L99.3242895,127.323797 C100.308649,124.931392 101.196974,122.538987 101.965254,119.907342 L0,119.907342 L0,127.323797 Z" fill="#21243D" fill-rule="nonzero"></path>
                <path d="M0,107.347215 L104.846307,107.347215 C105.206439,104.95481 105.494544,102.418861 105.662605,99.9307595 L0,99.9307595 L0,107.347215 Z" fill="#21243D" fill-rule="nonzero"></path>
                <path d="M0,87.3706329 L105.638596,87.3706329 C105.470535,84.8586076 105.18243,82.3705063 104.822298,79.9302532 L0,79.9302532 L0,87.3706329 Z" fill="#21243D" fill-rule="nonzero"></path>
                <path d="M0,67.3701266 L101.965254,67.3701266 C101.196974,64.8581013 100.308649,62.37 99.3242895,59.9536709 L0,59.9536709 L0,67.3701266 Z" fill="#21243D" fill-rule="nonzero"></path>
                <path d="M0,47.3935443 L93.0339912,47.3935443 C91.5058718,44.838256 89.8470825,42.3628448 88.0641754,39.9770886 L0,39.9770886 L0,47.3935443 Z" fill="#21243D" fill-rule="nonzero"></path>
                <path d="M0,19.9765823 L0,27.416962 L76.6840175,27.416962 C71.4276961,22.663049 64.5754557,20.0427808 57.477,20.0722785 L0,19.9765823 Z" fill="#21243D" fill-rule="nonzero"></path>
            </g>
        </g>
    </g>
</svg>
